X:144
T:Napoli Waltz by Rossini from the Barber of Seviglia
O:No 144 Page 69  William Clarke of Feltwell
N:Time sig changed from 3/4 to 3/8 , Bar 2 B section - first note altered to quaver from semiq. 
M:3/8
L:1/8
K:F
c| c{d}c/=B/c/d/| c f2|A {B}A/G/A/B/| A c2|F/G/A/B/=B/c/| d2 c| e/d/c/B/A/G/| F2 :|
:| 3(.c.c.c)| (=Bc/).c/.c/.c/| (bc/).c.c.c.|f/e/d/c/B/A/| c.B/.B/.B/.B/| (AB/).B/.B/.B/|(AB/).B/.B/.B/ | edcBAG|F2||

